public/signature.svg

<svg xmlns="http://www.w3.org/2000/svg" width="312" height="206" fill="none" viewBox="0 0 312 206"><path stroke="#000" stroke-linecap="round" stroke-width="17.325" d="M58.543 196.488c3.121-1.757 2.832-2.074 5.664-4.148m0 0c3.328-3.259 3.353-3.152 6.129-6.938m0 0c6.871-9.279 6.984-9.174 13.441-18.769m0 0c11.691-17.667 12.055-17.413 23.809-35.035m0 0c14.489-22.333 15.189-21.77 30.805-43.243m0 0c17.172-21.885 17.053-21.854 35.933-42.285m0 0c13.554-14.035 13.165-14.313 27.918-27.14m0 0c9.648-9.099 5.882-5.366 12.574-9.801m0 0c-1.243 4.175 1.554-.373-3.613 7.652m0 0c-5.156 8.193-5.339 7.837-11.805 14.977m0 0c-9.996 11.191-10.274 10.483-22.043 19.558"/><path stroke="#000" stroke-linecap="round" stroke-width="17.325" d="M177.355 51.316c-18.77 13.42-18.658 12.961-39.367 23.098m0 0c-31.062 13.412-30.491 14.326-62.808 24.91m0 0c-25.97 7.218-25.23 9.138-51.145 16.364m0 0c-18.206 7.696-7.918 2.876-15.043 7.679m0 0c17.264-4.279 6.659-.036 34.688-7.785m0 0c32.117-6.383 32.092-6.458 64.343-12.144m0 0c24.234-4.522 24.25-4.336 48.61-8.051m0 0c22.239-3.921 22.21-3.216 44.562-5.438m0 0c10.463-.526 10.097-.686 20.278 1.031m0 0c3.945.731 2.714.431 4.781 2.946m0 0c.303 3.943 1.089 2.886-.93 7.258m-78.449 74.418c1.262-4.259 1.246-4.264 2.492-8.528m0 0c.482-2.49.696-2.415 1.36-4.84m0 0c1.312-3.531 1.308-3.504 3.011-6.867m0 0c2.091-3.675 1.916-3.762 4.219-7.328m0 0c1.96-3.285 1.925-3.306 3.887-6.59m0 0c1.679-3.313 1.862-3.193 3.691-6.406m0 0c1.313-4.124 1.646-2.53 3.625-4.84m0 0c3.426.168 2.22-.687 5.438 2.035m0 0c2.852 3.117 2.746 2.549 4.078 6.797m0 0c2.31 4.972 1.378 4.14 1.129 8.844m0 0c-2.365 3.989-1.136 3.723-5.762 6.348m0 0c-2.928 1.319-2.48 1.722-5.992 1.812m0 0c-3.353.353-3.274.527-6.684.227m0 0c-5.707-.537-2.776-.106-5.531-.692"/><path stroke="#000" stroke-linecap="round" stroke-width="17.325" d="M155.836 155.574c3.318-.753.198-.175 6.277.031m0 0c3.729 1.671 3.846 1.02 7.332 3.579m0 0c4.258 1.889 4.055 2.146 7.985 4.531m13.355 11.945c3.218-3.569 3.061-3.687 6.121-7.375m0 0c2.204-2.895 2.196-2.878 4.078-5.992m0 0c2.34-4.588 2.659-4.393 4.989-8.988m0 0c2.002-6.117 1.998-3.321 4.304-6.453"/><path stroke="#000" stroke-linecap="round" stroke-width="17.325" d="M210.277 146.852c2.735 2.293 2.003-.293 4.305 5.195m0 0c.783 2.85 1.376 2.543 1.586 5.695m0 0c1.032 3.26.927 3.286 1.875 6.567m0 0c.789 2.588.661 2.593 1.133 5.234m-27.43-2.906c2.61.505 2.608.226 5.215.453m0 0c3.302-.357 3.305-.067 6.605-.692m0 0c3.513-.402 3.517-.356 7.036-.691m0 0c3.523-.162 3.512-.288 7.035-.461"/><path stroke="#000" stroke-linecap="round" stroke-width="17.325" d="M217.637 165.246c3.611-.342 3.613-.308 7.215-.754m14.164 8.485c.671-3.666.679-3.664 1.359-7.329m0 0c.384-3.018.558-2.974 1.133-5.945m0 0c.882-3.276.837-3.272 2.039-6.453m0 0c1.04-3.102 1.109-3.046 2.492-5.992m0 0c.992-4.146 1.153-2.296 2.719-4.379m0 0c2.685 1.313 1.898-.257 4.531 3.398m0 0c1.953 2.879 2.263 2.556 3.688 5.883m0 0c1.545 3.288 1.808 3.132 3.398 6.391m0 0c1.569 5.02 1.548 2.592 3.402 5m0 0c2.19-2.512 2.02-.023 4.305-5.086m0 0c4.371-6.469 4.878-5.938 9.68-11.938m0 0c2.895-2.53 2.611-2.689 6.16-4.379m0 0c2.547-1.888 2.434-1.378 5.238-2.074m0 0c4.052-.519 2.972-.205 6.086 1.293"/><path stroke="#000" stroke-linecap="round" stroke-width="17.325" d="M295.246 141.367c1.305 3.018 2.141 1.907 2.266 6.145m0 0c1.254 4.1 1.254 4.084 2.164 8.277m0 0c.956 4.869 1.055 4.843 1.765 9.762m0 0c.249 3.235.527 3.181.907 6.387"/></svg>

<svg xmlns="http://www.w3.org/2000/svg" width="312" height="206" fill="none" viewBox="0 0 312 206"><path stroke="#000" stroke-linecap="round" stroke-width="17.325" d="M58.543 196.488C61.664 194.731 61.375 194.414 64.207 192.34"/><path stroke="#000" stroke-linecap="round" stroke-width="17.325" d="M64.207 192.34C67.535 189.081 67.56 189.188 70.336 185.402"/><path stroke="#000" stroke-linecap="round" stroke-width="17.325" d="M70.336 185.402C77.207 176.123 77.32 176.228 83.777 166.633"/><path stroke="#000" stroke-linecap="round" stroke-width="17.325" d="M83.777 166.633C95.468 148.966 95.832 149.22 107.586 131.598"/><path stroke="#000" stroke-linecap="round" stroke-width="17.325" d="M107.586 131.598C122.075 109.265 122.775 109.828 138.391 88.355"/><path stroke="#000" stroke-linecap="round" stroke-width="17.325" d="M138.391 88.355C155.563 66.47 155.444 66.501 174.324 46.07"/><path stroke="#000" stroke-linecap="round" stroke-width="17.325" d="M174.324 46.07C187.878 32.035 187.489 31.757 202.242 18.93"/><path stroke="#000" stroke-linecap="round" stroke-width="17.325" d="M202.242 18.93C211.89 9.831 208.124 13.564 214.816 9.129"/><path stroke="#000" stroke-linecap="round" stroke-width="17.325" d="M214.816 9.129C213.573 13.304 216.37 8.756 211.203 16.781"/><path stroke="#000" stroke-linecap="round" stroke-width="17.325" d="M211.203 16.781C206.047 24.974 205.864 24.618 199.398 31.758"/><path stroke="#000" stroke-linecap="round" stroke-width="17.325" d="M199.398 31.758C189.402 42.949 189.124 42.241 177.355 51.316"/><path stroke="#000" stroke-linecap="round" stroke-width="17.325" d="M177.355 51.316C158.585 64.736 158.697 64.277 137.988 74.414"/><path stroke="#000" stroke-linecap="round" stroke-width="17.325" d="M137.988 74.414C106.926 87.826 107.497 88.74 75.18 99.324"/><path stroke="#000" stroke-linecap="round" stroke-width="17.325" d="M75.18 99.324C49.21 106.542 49.95 108.462 24.035 115.688"/><path stroke="#000" stroke-linecap="round" stroke-width="17.325" d="M24.035 115.688C5.829 123.384 16.117 118.564 8.992 123.367"/><path stroke="#000" stroke-linecap="round" stroke-width="17.325" d="M8.992 123.367C26.256 119.088 15.651 123.331 43.68 115.582"/><path stroke="#000" stroke-linecap="round" stroke-width="17.325" d="M43.68 115.582C75.797 109.199 75.772 109.124 108.023 103.438"/><path stroke="#000" stroke-linecap="round" stroke-width="17.325" d="M108.023 103.438C132.257 98.916 132.273 99.102 156.633 95.387"/><path stroke="#000" stroke-linecap="round" stroke-width="17.325" d="M156.633 95.387C178.872 91.466 178.843 92.171 201.195 89.949"/><path stroke="#000" stroke-linecap="round" stroke-width="17.325" d="M201.195 89.949C211.658 89.423 211.292 89.263 221.473 90.98"/><path stroke="#000" stroke-linecap="round" stroke-width="17.325" d="M221.473 90.98C225.418 91.711 224.187 91.411 226.254 93.926"/><path stroke="#000" stroke-linecap="round" stroke-width="17.325" d="M226.254 93.926C226.557 97.869 227.343 96.812 225.324 101.184"/><path stroke="#000" stroke-linecap="round" stroke-width="17.325" d="M146.875 175.602C148.137 171.343 148.121 171.338 149.367 167.074"/><path stroke="#000" stroke-linecap="round" stroke-width="17.325" d="M149.367 167.074C149.849 164.584 150.063 164.659 150.727 162.234"/><path stroke="#000" stroke-linecap="round" stroke-width="17.325" d="M150.727 162.234C152.039 158.703 152.035 158.73 153.738 155.367"/><path stroke="#000" stroke-linecap="round" stroke-width="17.325" d="M153.738 155.367C155.829 151.692 155.654 151.605 157.957 148.039"/><path stroke="#000" stroke-linecap="round" stroke-width="17.325" d="M157.957 148.039C159.917 144.754 159.882 144.733 161.844 141.449"/><path stroke="#000" stroke-linecap="round" stroke-width="17.325" d="M161.844 141.449C163.523 138.136 163.706 138.256 165.535 135.043"/><path stroke="#000" stroke-linecap="round" stroke-width="17.325" d="M165.535 135.043C166.848 130.919 167.181 132.513 169.16 130.203"/><path stroke="#000" stroke-linecap="round" stroke-width="17.325" d="M169.16 130.203C172.586 130.371 171.38 129.516 174.598 132.238"/><path stroke="#000" stroke-linecap="round" stroke-width="17.325" d="M174.598 132.238C177.45 135.355 177.344 134.787 178.676 139.035"/><path stroke="#000" stroke-linecap="round" stroke-width="17.325" d="M178.676 139.035C180.986 144.007 180.054 143.175 179.805 147.879"/><path stroke="#000" stroke-linecap="round" stroke-width="17.325" d="M179.805 147.879C177.44 151.868 178.669 151.602 174.043 154.227"/><path stroke="#000" stroke-linecap="round" stroke-width="17.325" d="M174.043 154.227C171.115 155.546 171.563 155.949 168.051 156.039"/><path stroke="#000" stroke-linecap="round" stroke-width="17.325" d="M168.051 156.039C164.698 156.392 164.777 156.566 161.367 156.266"/><path stroke="#000" stroke-linecap="round" stroke-width="17.325" d="M161.367 156.266C155.66 155.729 158.591 156.16 155.836 155.574"/><path stroke="#000" stroke-linecap="round" stroke-width="17.325" d="M155.836 155.574C159.154 154.821 156.034 155.399 162.113 155.605"/><path stroke="#000" stroke-linecap="round" stroke-width="17.325" d="M162.113 155.605C165.842 157.276 165.959 156.625 169.445 159.184"/><path stroke="#000" stroke-linecap="round" stroke-width="17.325" d="M169.445 159.184C173.703 161.073 173.5 161.33 177.43 163.715"/><path stroke="#000" stroke-linecap="round" stroke-width="17.325" d="M190.785 175.66C194.003 172.091 193.846 171.973 196.906 168.285"/><path stroke="#000" stroke-linecap="round" stroke-width="17.325" d="M196.906 168.285C199.11 165.39 199.102 165.407 200.984 162.293"/><path stroke="#000" stroke-linecap="round" stroke-width="17.325" d="M200.984 162.293C203.324 157.705 203.643 157.9 205.973 153.305"/><path stroke="#000" stroke-linecap="round" stroke-width="17.325" d="M205.973 153.305C207.975 147.188 207.971 149.984 210.277 146.852"/><path stroke="#000" stroke-linecap="round" stroke-width="17.325" d="M210.277 146.852C213.012 149.145 212.28 146.559 214.582 152.047"/><path stroke="#000" stroke-linecap="round" stroke-width="17.325" d="M214.582 152.047C215.365 154.897 215.958 154.59 216.168 157.742"/><path stroke="#000" stroke-linecap="round" stroke-width="17.325" d="M216.168 157.742C217.2 161.002 217.095 161.028 218.043 164.309"/><path stroke="#000" stroke-linecap="round" stroke-width="17.325" d="M218.043 164.309C218.832 166.897 218.704 166.902 219.176 169.543"/><path stroke="#000" stroke-linecap="round" stroke-width="17.325" d="M191.746 166.637C194.356 167.142 194.354 166.863 196.961 167.09"/><path stroke="#000" stroke-linecap="round" stroke-width="17.325" d="M196.961 167.09C200.263 166.733 200.266 167.023 203.566 166.398"/><path stroke="#000" stroke-linecap="round" stroke-width="17.325" d="M203.566 166.398C207.079 165.996 207.083 166.042 210.602 165.707"/><path stroke="#000" stroke-linecap="round" stroke-width="17.325" d="M210.602 165.707C214.125 165.545 214.114 165.419 217.637 165.246"/><path stroke="#000" stroke-linecap="round" stroke-width="17.325" d="M217.637 165.246C221.248 164.904 221.25 164.938 224.852 164.492"/><path stroke="#000" stroke-linecap="round" stroke-width="17.325" d="M239.016 172.977C239.687 169.311 239.695 169.313 240.375 165.648"/><path stroke="#000" stroke-linecap="round" stroke-width="17.325" d="M240.375 165.648C240.759 162.63 240.933 162.674 241.508 159.703"/><path stroke="#000" stroke-linecap="round" stroke-width="17.325" d="M241.508 159.703C242.39 156.427 242.345 156.431 243.547 153.25"/><path stroke="#000" stroke-linecap="round" stroke-width="17.325" d="M243.547 153.25C244.587 150.148 244.656 150.204 246.039 147.258"/><path stroke="#000" stroke-linecap="round" stroke-width="17.325" d="M246.039 147.258C247.031 143.112 247.192 144.962 248.758 142.879"/><path stroke="#000" stroke-linecap="round" stroke-width="17.325" d="M248.758 142.879C251.443 144.192 250.656 142.622 253.289 146.277"/><path stroke="#000" stroke-linecap="round" stroke-width="17.325" d="M253.289 146.277C255.242 149.156 255.552 148.833 256.977 152.16"/><path stroke="#000" stroke-linecap="round" stroke-width="17.325" d="M256.977 152.16C258.522 155.448 258.785 155.292 260.375 158.551"/><path stroke="#000" stroke-linecap="round" stroke-width="17.325" d="M260.375 158.551C261.944 163.571 261.923 161.143 263.777 163.551"/><path stroke="#000" stroke-linecap="round" stroke-width="17.325" d="M263.777 163.551C265.967 161.039 265.797 163.528 268.082 158.465"/><path stroke="#000" stroke-linecap="round" stroke-width="17.325" d="M268.082 158.465C272.453 151.996 272.96 152.527 277.762 146.527"/><path stroke="#000" stroke-linecap="round" stroke-width="17.325" d="M277.762 146.527C280.657 143.997 280.373 143.838 283.922 142.148"/><path stroke="#000" stroke-linecap="round" stroke-width="17.325" d="M283.922 142.148C286.469 140.26 286.356 140.77 289.16 140.074"/><path stroke="#000" stroke-linecap="round" stroke-width="17.325" d="M289.16 140.074C293.212 139.555 292.132 139.869 295.246 141.367"/><path stroke="#000" stroke-linecap="round" stroke-width="17.325" d="M295.246 141.367C296.551 144.385 297.387 143.274 297.512 147.512"/><path stroke="#000" stroke-linecap="round" stroke-width="17.325" d="M297.512 147.512C298.766 151.612 298.766 151.596 299.676 155.789"/><path stroke="#000" stroke-linecap="round" stroke-width="17.325" d="M299.676 155.789C300.632 160.658 300.731 160.632 301.441 165.551"/><path stroke="#000" stroke-linecap="round" stroke-width="17.325" d="M301.441 165.551C301.69 168.786 301.968 168.732 302.348 171.938"/></svg>
